{
 "backgroundcolor": "#3a366e",
 "compressionlevel": -1,
 "height": 12,
 "infinite": false,
 "layers": [
  {
   "data": [
    5,
    5,
    5,
    5,
    5,
    5,
    5,
    5,
    5,
    5,
    5,
    5,
    5,
    1,
    1,
    1,
    2,
    1,
    1,
    1,
    1,
    2,
    1,
    1,
    5,
    1,
    1,
    2,
    1,
    1,
    1,
    1,
    2,
    1,
    1,
    1,
    5,
    1,
    2,
    1,
    1,
    1,
    1,
    2,
    1,
    1,
    1,
    1,
    5,
    2,
    1,
    1,
    1,
    1,
    2,
    1,
    1,
    1,
    1,
    2,
    5,
    1,
    1,
    1,
    1,
    2,
    1,
    1,
    1,
    1,
    2,
    1,
    5,
    1,
    1,
    1,
    2,
    1,
    1,
    1,
    1,
    2,
    1,
    1,
    5,
    1,
    1,
    2,
    1,
    1,
    1,
    1,
    2,
    1,
    1,
    1,
    5,
    1,
    2,
    1,
    1,
    1,
    1,
    2,
    1,
    1,
    1,
    1,
    5,
    2,
    1,
    1,
    1,
    1,
    2,
    1,
    1,
    1,
    1,
    2,
    5,
    1,
    1,
    1,
    1,
    2,
    1,
    1,
    1,
    1,
    7,
    1,
    5,
    1,
    1,
    1,
    2,
    1,
    1,
    1,
    1,
    2,
    1,
    1
   ],
   "height": 12,
   "id": 0,
   "name": "ground",
   "opacity": 1,
   "type": "tilelayer",
   "visible": true,
   "width": 12,
   "x": 0,
   "y": 0,
   "properties": [
    {
     "name": "collision",
     "type": "bool",
     "value": true
    }
   ]
  },
  {
   "data": [
    0,
    0,
    0,
    0,
    0,
    0,
    0,
    0,
    0,
    0,
    0,
    0,
    0,
    0,
    0,
    0,
    0,
    0,
    0,
    0,
    0,
    0,
    0,
    0,
    0,
    0,
    0,
    0,
    0,
    0,
    0,
    3,
    0,
    0,
    0,
    0,
    0,
    0,
    0,
    0,
    0,
    0,
    0,
    0,
    0,
    4,
    0,
    0,
    0,
    0,
    0,
    0,
    3,
    3,
    0,
    0,
    0,
    0,
    0,
    0,
    0,
    0,
    0,
    0,
    3,
    0,
    0,
    0,
    0,
    3,
    0,
    0,
    0,
    0,
    0,
    0,
    0,
    0,
    4,
    0,
    0,
    0,
    0,
    0,
    0,
    0,
    3,
    0,
    0,
    0,
    0,
    0,
    0,
    0,
    0,
    0,
    0,
    0,
    0,
    0,
    0,
    0,
    0,
    0,
    3,
    0,
    0,
    0,
    0,
    0,
    0,
    4,
    0,
    3,
    0,
    0,
    0,
    0,
    0,
    0,
    0,
    0,
    0,
    0,
    0,
    0,
    0,
    0,
    0,
    0,
    0,
    0,
    0,
    0,
    0,
    0,
    0,
    0,
    0,
    0,
    0,
    0,
    0,
    0
   ],
   "height": 12,
   "id": 0,
   "name": "blocks",
   "opacity": 1,
   "type": "tilelayer",
   "visible": true,
   "width": 12,
   "x": 0,
   "y": 0,
   "properties": [
    {
     "name": "collision",
     "type": "bool",
     "value": true
    }
   ]
  },
  {
   "draworder": "topdown",
   "id": 0,
   "name": "things",
   "objects": [
    {
     "id": 87,
     "name": "player",
     "type": "player",
     "rotation": 0,
     "visible": true,
     "x": 10,
     "y": 14,
     "width": 4,
     "height": 4,
     "gid": 8
    },
    {
     "id": 88,
     "name": "from_town",
     "type": "spawn",
     "rotation": 0,
     "visible": true,
     "x": 10,
     "y": 10,
     "width": 0,
     "height": 0,
     "point": true
    },
    {
     "id": 89,
     "name": "goal",
     "type": "portal",
     "rotation": 0,
     "visible": true,
     "x": 80,
     "y": 80,
     "width": 8,
     "height": 8,
     "properties": [
      {
       "name": "destination",
       "type": "string",
       "value": "town"
      },
      {
       "name": "spawn",
       "type": "string",
       "value": "from_pyramid"
      }
     ]
    },
    {
     "id": 90,
     "name": "hopper0",
     "type": "enemy",
     "rotation": 0,
     "visible": true,
     "x": 66,
     "y": 14,
     "width": 4,
     "height": 4,
     "gid": 9,
     "properties": [
      {
       "name": "speed",
       "type": "float",
       "value": 1.6
      }
     ]
    },
    {
     "id": 91,
     "name": "hopper1",
     "type": "enemy",
     "rotation": 0,
     "visible": true,
     "x": 10,
     "y": 70,
     "width": 4,
     "height": 4,
     "gid": 9,
     "properties": [
      {
       "name": "speed",
       "type": "float",
       "value": 1.6
      }
     ]
    },
    {
     "id": 92,
     "name": "hopper2",
     "type": "enemy",
     "rotation": 0,
     "visible": true,
     "x": 50,
     "y": 86,
     "width": 4,
     "height": 4,
     "gid": 9,
     "properties": [
      {
       "name": "speed",
       "type": "float",
       "value": 1.6
      }
     ]
    }
   ],
   "opacity": 1,
   "type": "objectgroup",
   "visible": true,
   "x": 0,
   "y": 0
  }
 ],
 "nextlayerid": 4,
 "nextobjectid": 93,
 "orientation": "isometric",
 "properties": [
  {
   "name": "map_type",
   "type": "string",
   "value": "qbert"
  },
  {
   "name": "name",
   "type": "string",
   "value": "pyramid"
  }
 ],
 "renderorder": "right-down",
 "tiledversion": "1.11.0",
 "tileheight": 8,
 "tilesets": [
  {
   "firstgid": 1,
   "source": "iso.tsj"
  }
 ],
 "tilewidth": 16,
 "type": "map",
 "version": "1.10",
 "width": 12
}
